wx-src/img/error.svg

<?xml version="1.0" encoding="UTF-8" standalone="no"?>
<!-- Created with Inkscape (http://www.inkscape.org/) -->
<svg
   xmlns:dc="http://purl.org/dc/elements/1.1/"
   xmlns:cc="http://web.resource.org/cc/"
   xmlns:rdf="http://www.w3.org/1999/02/22-rdf-syntax-ns#"
   xmlns:svg="http://www.w3.org/2000/svg"
   xmlns="http://www.w3.org/2000/svg"
   xmlns:xlink="http://www.w3.org/1999/xlink"
   xmlns:sodipodi="http://sodipodi.sourceforge.net/DTD/sodipodi-0.dtd"
   xmlns:inkscape="http://www.inkscape.org/namespaces/inkscape"
   width="48px"
   height="48px"
   id="svg1306"
   sodipodi:version="0.32"
   inkscape:version="0.45.1"
   sodipodi:docbase="C:\Documents and Settings\AleXander\Desktop"
   sodipodi:docname="Dialog-error.svg"
   inkscape:output_extension="org.inkscape.output.svg.inkscape">
  <defs
     id="defs1308">
    <linearGradient
       id="linearGradient3957">
      <stop
         style="stop-color:#fffeff;stop-opacity:0.33333334;"
         offset="0"
         id="stop3959" />
      <stop
         style="stop-color:#fffeff;stop-opacity:0.21568628;"
         offset="1"
         id="stop3961" />
    </linearGradient>
    <linearGradient
       id="linearGradient2536">
      <stop
         style="stop-color:#a40000;stop-opacity:1;"
         offset="0"
         id="stop2538" />
      <stop
         style="stop-color:#ff1717;stop-opacity:1;"
         offset="1"
         id="stop2540" />
    </linearGradient>
    <linearGradient
       id="linearGradient2479">
      <stop
         style="stop-color:#ffe69b;stop-opacity:1;"
         offset="0"
         id="stop2481" />
      <stop
         style="stop-color:#ffffff;stop-opacity:1;"
         offset="1"
         id="stop2483" />
    </linearGradient>
    <linearGradient
       id="linearGradient4126"
       inkscape:collect="always">
      <stop
         id="stop4128"
         offset="0"
         style="stop-color:#000000;stop-opacity:1;" />
      <stop
         id="stop4130"
         offset="1"
         style="stop-color:#000000;stop-opacity:0;" />
    </linearGradient>
    <radialGradient
       inkscape:collect="always"
       xlink:href="#linearGradient4126"
       id="radialGradient2169"
       gradientUnits="userSpaceOnUse"
       gradientTransform="matrix(1.000000,0.000000,0.000000,0.500000,1.899196e-14,20.00000)"
       cx="23.857143"
       cy="40.000000"
       fx="23.857143"
       fy="40.000000"
       r="17.142857" />
    <linearGradient
       inkscape:collect="always"
       xlink:href="#linearGradient2479"
       id="linearGradient2485"
       x1="43.93581"
       y1="53.835983"
       x2="20.064686"
       y2="-8.5626707"
       gradientUnits="userSpaceOnUse" />
    <linearGradient
       inkscape:collect="always"
       xlink:href="#linearGradient2536"
       id="linearGradient2542"
       x1="36.917976"
       y1="66.288063"
       x2="19.071495"
       y2="5.5410109"
       gradientUnits="userSpaceOnUse" />
    <linearGradient
       inkscape:collect="always"
       xlink:href="#linearGradient2536"
       id="linearGradient3046"
       gradientUnits="userSpaceOnUse"
       x1="36.917976"
       y1="66.288063"
       x2="19.071495"
       y2="5.5410109" />
    <linearGradient
       inkscape:collect="always"
       xlink:href="#linearGradient2479"
       id="linearGradient3048"
       gradientUnits="userSpaceOnUse"
       x1="43.93581"
       y1="53.835983"
       x2="20.064686"
       y2="-8.5626707" />
    <linearGradient
       inkscape:collect="always"
       xlink:href="#linearGradient2536"
       id="linearGradient3064"
       gradientUnits="userSpaceOnUse"
       x1="36.917976"
       y1="66.288063"
       x2="19.071495"
       y2="5.5410109" />
    <linearGradient
       inkscape:collect="always"
       xlink:href="#linearGradient2479"
       id="linearGradient3066"
       gradientUnits="userSpaceOnUse"
       x1="43.93581"
       y1="53.835983"
       x2="20.064686"
       y2="-8.5626707" />
    <linearGradient
       inkscape:collect="always"
       xlink:href="#linearGradient3957"
       id="linearGradient3963"
       x1="21.993773"
       y1="33.955299"
       x2="20.917078"
       y2="15.814602"
       gradientUnits="userSpaceOnUse" />
    <radialGradient
       inkscape:collect="always"
       xlink:href="#linearGradient4126"
       id="radialGradient3976"
       gradientUnits="userSpaceOnUse"
       gradientTransform="matrix(1,0,0,0.5,0,20)"
       cx="23.857143"
       cy="40.000000"
       fx="23.857143"
       fy="40.000000"
       r="17.142857" />
    <linearGradient
       inkscape:collect="always"
       xlink:href="#linearGradient2536"
       id="linearGradient3978"
       gradientUnits="userSpaceOnUse"
       x1="36.917976"
       y1="66.288063"
       x2="19.071495"
       y2="5.5410109" />
    <linearGradient
       inkscape:collect="always"
       xlink:href="#linearGradient2479"
       id="linearGradient3980"
       gradientUnits="userSpaceOnUse"
       x1="43.93581"
       y1="53.835983"
       x2="20.064686"
       y2="-8.5626707" />
    <linearGradient
       inkscape:collect="always"
       xlink:href="#linearGradient3957"
       id="linearGradient3982"
       gradientUnits="userSpaceOnUse"
       x1="21.993773"
       y1="33.955299"
       x2="20.917078"
       y2="15.814602"
       gradientTransform="matrix(1.002994,0,0,1.002994,-7.1859e-2,1.968356e-2)" />
    <linearGradient
       gradientTransform="translate(0,-2)"
       gradientUnits="userSpaceOnUse"
       y2="35.05225"
       x2="24.30225"
       y1="15.80225"
       x1="21.75"
       id="linearGradient2262"
       xlink:href="#linearGradient2256"
       inkscape:collect="always" />
    <radialGradient
       gradientUnits="userSpaceOnUse"
       gradientTransform="matrix(4.154957,0,0,3.198723,-52.84553,-23.50921)"
       r="21.25"
       fy="10.666344"
       fx="16.75"
       cy="10.666344"
       cx="16.75"
       id="radialGradient2254"
       xlink:href="#linearGradient2248"
       inkscape:collect="always" />
    <linearGradient
       gradientTransform="matrix(0.988373,0.000000,0.000000,0.988373,0.279002,0.278984)"
       y2="37.959785"
       x2="41.047836"
       y1="20.105337"
       x1="23.995985"
       gradientUnits="userSpaceOnUse"
       id="linearGradient2243"
       xlink:href="#linearGradient4981"
       inkscape:collect="always" />
    <radialGradient
       gradientTransform="matrix(1.693981,0,0,1.693981,-16.86529,-25.11111)"
       gradientUnits="userSpaceOnUse"
       r="12.30225"
       fy="33.30225"
       fx="24.30225"
       cy="33.30225"
       cx="24.30225"
       id="radialGradient2239"
       xlink:href="#linearGradient9647"
       inkscape:collect="always" />
    <linearGradient
       gradientUnits="userSpaceOnUse"
       y2="28.394291"
       x2="32.166405"
       y1="16.285088"
       x1="15.578875"
       id="linearGradient7901"
       xlink:href="#linearGradient7895"
       inkscape:collect="always" />
    <linearGradient
       gradientTransform="translate(0,-2)"
       gradientUnits="userSpaceOnUse"
       y2="37.959785"
       x2="41.047836"
       y1="20.105337"
       x1="23.995985"
       id="linearGradient4987"
       xlink:href="#linearGradient4981"
       inkscape:collect="always" />
    <linearGradient
       gradientTransform="translate(0,-2)"
       gradientUnits="userSpaceOnUse"
       y2="47.374317"
       x2="53.570126"
       y1="12.503600"
       x1="15.737001"
       id="linearGradient2057"
       xlink:href="#linearGradient11780"
       inkscape:collect="always" />
    <linearGradient
       inkscape:collect="always"
       xlink:href="#linearGradient15762"
       id="linearGradient15772"
       gradientUnits="userSpaceOnUse"
       gradientTransform="matrix(-1.000000,0.000000,0.000000,-1.000000,31.72170,31.29079)"
       x1="5.7365270"
       y1="5.3855424"
       x2="9.8940229"
       y2="9.6507530" />
    <linearGradient
       id="linearGradient11014">
      <stop
         id="stop11016"
         offset="0.0000000"
         style="stop-color:#a80000;stop-opacity:1.0000000;" />
      <stop
         id="stop13245"
         offset="0.0000000"
         style="stop-color:#c60000;stop-opacity:1.0000000;" />
      <stop
         id="stop11018"
         offset="1.0000000"
         style="stop-color:#e50000;stop-opacity:1.0000000;" />
    </linearGradient>
    <linearGradient
       id="linearGradient11780">
      <stop
         id="stop11782"
         offset="0.0000000"
         style="stop-color:#ff8b8b;stop-opacity:1.0000000;" />
      <stop
         id="stop11784"
         offset="1.0000000"
         style="stop-color:#ec1b1b;stop-opacity:1.0000000;" />
    </linearGradient>
    <linearGradient
       id="linearGradient14236">
      <stop
         style="stop-color:#ed4040;stop-opacity:1.0000000;"
         offset="0.0000000"
         id="stop14238" />
      <stop
         style="stop-color:#a40000;stop-opacity:1.0000000;"
         offset="1.0000000"
         id="stop14240" />
    </linearGradient>
    <linearGradient
       inkscape:collect="always"
       id="linearGradient15762">
      <stop
         style="stop-color:#ffffff;stop-opacity:1;"
         offset="0"
         id="stop15764" />
      <stop
         style="stop-color:#ffffff;stop-opacity:0;"
         offset="1"
         id="stop15766" />
    </linearGradient>
    <linearGradient
       id="linearGradient4981">
      <stop
         id="stop4983"
         offset="0"
         style="stop-color:#cc0000;stop-opacity:1;" />
      <stop
         id="stop4985"
         offset="1.0000000"
         style="stop-color:#b30000;stop-opacity:1.0000000;" />
    </linearGradient>
    <linearGradient
       id="linearGradient7895"
       inkscape:collect="always">
      <stop
         id="stop7897"
         offset="0"
         style="stop-color:#ffffff;stop-opacity:1;" />
      <stop
         id="stop7899"
         offset="1"
         style="stop-color:#ffffff;stop-opacity:0;" />
    </linearGradient>
    <radialGradient
       gradientUnits="userSpaceOnUse"
       gradientTransform="matrix(1,0,0,0.595238,0,14.875)"
       r="15.75"
       fy="36.75"
       fx="25.125"
       cy="36.75"
       cx="25.125"
       id="radialGradient21650"
       xlink:href="#linearGradient21644"
       inkscape:collect="always" />
    <linearGradient
       id="linearGradient21644"
       inkscape:collect="always">
      <stop
         id="stop21646"
         offset="0"
         style="stop-color:#000000;stop-opacity:1;" />
      <stop
         id="stop21648"
         offset="1"
         style="stop-color:#000000;stop-opacity:0;" />
    </linearGradient>
    <linearGradient
       id="linearGradient9647">
      <stop
         id="stop9649"
         offset="0"
         style="stop-color:#ffffff;stop-opacity:1;" />
      <stop
         id="stop9651"
         offset="1"
         style="stop-color:#dbdbdb;stop-opacity:1;" />
    </linearGradient>
    <linearGradient
       id="linearGradient2248"
       inkscape:collect="always">
      <stop
         id="stop2250"
         offset="0"
         style="stop-color:#ffffff;stop-opacity:1;" />
      <stop
         id="stop2252"
         offset="1"
         style="stop-color:#ffffff;stop-opacity:0;" />
    </linearGradient>
    <linearGradient
       id="linearGradient2256">
      <stop
         id="stop2258"
         offset="0"
         style="stop-color:#ff0202;stop-opacity:1;" />
      <stop
         id="stop2260"
         offset="1"
         style="stop-color:#ff9b9b;stop-opacity:1;" />
    </linearGradient>
    <radialGradient
       inkscape:collect="always"
       xlink:href="#linearGradient9647"
       id="radialGradient2335"
       gradientUnits="userSpaceOnUse"
       gradientTransform="matrix(1.693981,0,0,1.693981,-16.86529,-23.715608)"
       cx="24.30225"
       cy="33.30225"
       fx="24.30225"
       fy="33.30225"
       r="12.30225" />
    <linearGradient
       inkscape:collect="always"
       xlink:href="#linearGradient2256"
       id="linearGradient2337"
       gradientUnits="userSpaceOnUse"
       gradientTransform="translate(-7.1723252e-7,-0.6044975)"
       x1="21.75"
       y1="15.80225"
       x2="24.30225"
       y2="35.05225" />
  </defs>
  <sodipodi:namedview
     id="base"
     pagecolor="#ffffff"
     bordercolor="#666666"
     borderopacity="0.21568627"
     inkscape:pageopacity="0.0"
     inkscape:pageshadow="2"
     inkscape:zoom="5.9785191"
     inkscape:cx="41.314579"
     inkscape:cy="38.052902"
     inkscape:current-layer="layer3"
     showgrid="true"
     inkscape:grid-bbox="true"
     inkscape:document-units="px"
     inkscape:window-width="925"
     inkscape:window-height="846"
     inkscape:window-x="247"
     inkscape:window-y="-12"
     inkscape:showpageshadow="false"
     fill="#ef2929"
     gridempspacing="4" />
  <metadata
     id="metadata1311">
    <rdf:RDF>
      <cc:Work
         rdf:about="">
        <dc:format>image/svg+xml</dc:format>
        <dc:type
           rdf:resource="http://purl.org/dc/dcmitype/StillImage" />
        <dc:creator>
          <cc:Agent>
            <dc:title>Rodney Dawes</dc:title>
          </cc:Agent>
        </dc:creator>
        <dc:contributor>
          <cc:Agent>
            <dc:title>Jakub Steiner, Garrett LeSage</dc:title>
          </cc:Agent>
        </dc:contributor>
        <cc:license
           rdf:resource="http://creativecommons.org/licenses/by-sa/2.0/" />
        <dc:title>Dialog Error</dc:title>
      </cc:Work>
      <cc:License
         rdf:about="http://creativecommons.org/licenses/by-sa/2.0/">
        <cc:permits
           rdf:resource="http://web.resource.org/cc/Reproduction" />
        <cc:permits
           rdf:resource="http://web.resource.org/cc/Distribution" />
        <cc:requires
           rdf:resource="http://web.resource.org/cc/Notice" />
        <cc:requires
           rdf:resource="http://web.resource.org/cc/Attribution" />
        <cc:permits
           rdf:resource="http://web.resource.org/cc/DerivativeWorks" />
        <cc:requires
           rdf:resource="http://web.resource.org/cc/ShareAlike" />
      </cc:License>
    </rdf:RDF>
  </metadata>
  <g
     inkscape:groupmode="layer"
     id="layer2"
     inkscape:label="Shadow">
    <path
       inkscape:r_cy="true"
       inkscape:r_cx="true"
       transform="matrix(1.070555,0,0,0.525,-0.892755,22.5)"
       d="M 41 40 A 17.142857 8.5714283 0 1 1  6.7142868,40 A 17.142857 8.5714283 0 1 1  41 40 z"
       sodipodi:ry="8.5714283"
       sodipodi:rx="17.142857"
       sodipodi:cy="40"
       sodipodi:cx="23.857143"
       id="path6548"
       style="opacity:0.6;color:#000000;fill:url(#radialGradient3976);fill-opacity:1;fill-rule:nonzero;stroke:none;stroke-width:1;stroke-linecap:butt;stroke-linejoin:miter;marker:none;marker-start:none;marker-mid:none;marker-end:none;stroke-miterlimit:10;stroke-dasharray:none;stroke-dashoffset:0;stroke-opacity:1;visibility:visible;display:block;overflow:visible"
       sodipodi:type="arc" />
  </g>
  <g
     id="layer1"
     inkscape:label="Layer 1"
     inkscape:groupmode="layer">
    <g
       id="g4006">
      <path
         transform="matrix(0.920488,0,0,0.920488,2.368532,0.97408)"
         d="M 46.857143 23.928572 A 23.357143 23.357143 0 1 1  0.1428566,23.928572 A 23.357143 23.357143 0 1 1  46.857143 23.928572 z"
         sodipodi:ry="23.357143"
         sodipodi:rx="23.357143"
         sodipodi:cy="23.928572"
         sodipodi:cx="23.5"
         id="path1314"
         style="fill:url(#linearGradient3978);fill-opacity:1;fill-rule:nonzero;stroke:#b20000;stroke-width:1.08638;stroke-linecap:butt;stroke-linejoin:miter;stroke-miterlimit:4;stroke-dasharray:none;stroke-opacity:1"
         sodipodi:type="arc"
         inkscape:r_cx="true"
         inkscape:r_cy="true" />
      <path
         transform="matrix(0.856093,0,0,0.856093,1.818275,0.197769)"
         d="M 49.901535 26.635273 A 23.991123 23.991123 0 1 1  1.9192886,26.635273 A 23.991123 23.991123 0 1 1  49.901535 26.635273 z"
         sodipodi:ry="23.991123"
         sodipodi:rx="23.991123"
         sodipodi:cy="26.635273"
         sodipodi:cx="25.910412"
         id="path3560"
         style="opacity:0.34659089;fill:#cc0000;fill-opacity:0;stroke:url(#linearGradient3980);stroke-width:1.16809607;stroke-linecap:butt;stroke-linejoin:miter;stroke-miterlimit:4;stroke-dasharray:none;stroke-opacity:1"
         sodipodi:type="arc"
         inkscape:r_cx="true"
         inkscape:r_cy="true" />
    </g>
  </g>
  <g
     inkscape:groupmode="layer"
     id="layer3"
     inkscape:label="Error Box">
    <rect
       inkscape:r_cy="true"
       inkscape:r_cx="true"
       style="fill:#efefef;fill-opacity:1;fill-rule:nonzero;stroke:none;stroke-width:0.73876643;stroke-miterlimit:4;stroke-dasharray:none;stroke-opacity:0.8627451"
       id="rect2070"
       width="28.000002"
       height="6.0000873"
       x="-13.292924"
       y="30.234007"
       transform="matrix(0.7071068,-0.7071068,0.7071068,0.7071068,0,0)" />
    <rect
       inkscape:r_cy="true"
       inkscape:r_cx="true"
       style="fill:#efefef;fill-opacity:1;fill-rule:nonzero;stroke:none;stroke-width:0.73876643;stroke-miterlimit:4;stroke-dasharray:none;stroke-opacity:0.8627451"
       id="rect2353"
       width="28.000002"
       height="6.0000873"
       x="19.234049"
       y="-3.7071202"
       transform="matrix(0.7071068,0.7071068,-0.7071068,0.7071068,0,0)" />
  </g>
  <g
     inkscape:groupmode="layer"
     id="layer4"
     inkscape:label="Glossy Shine">
    <path
       sodipodi:nodetypes="czssc"
       id="path3955"
       d="M 43.428679,21.800186 C 43.428679,32.663229 33.043349,15.515116 24.698029,22.187731 C 16.547377,28.704695 4.039397,34.414777 4.039397,23.551734 C 4.039397,12.434496 12.760828,2.1207586 23.623874,2.1207586 C 34.48692,2.1207586 43.428679,10.937141 43.428679,21.800186 z "
       style="fill:url(#linearGradient3982);fill-opacity:1;fill-rule:nonzero;stroke:none;stroke-width:1;stroke-linecap:round;stroke-linejoin:round;stroke-miterlimit:4;stroke-dashoffset:0;stroke-opacity:1"
       inkscape:r_cx="true"
       inkscape:r_cy="true" />
  </g>
</svg>

<?xml version="1.0" encoding="UTF-8"?>
<svg width="48px" height="48px" version="1.1" xmlns="http://www.w3.org/2000/svg" xmlns:xlink="http://www.w3.org/1999/xlink">
 <defs>
  <radialGradient id="radialGradient3976" cx="23.857" cy="40" r="17.143" gradientTransform="matrix(1 0 0 .5 0 20)" gradientUnits="userSpaceOnUse">
   <stop offset="0"/>
   <stop stop-opacity="0" offset="1"/>
  </radialGradient>
  <linearGradient id="linearGradient3978" x1="36.918" x2="19.071" y1="66.288" y2="5.541" gradientUnits="userSpaceOnUse">
   <stop stop-color="#a40000" offset="0"/>
   <stop stop-color="#ff1717" offset="1"/>
  </linearGradient>
  <linearGradient id="linearGradient3980" x1="43.936" x2="20.065" y1="53.836" y2="-8.5627" gradientUnits="userSpaceOnUse">
   <stop stop-color="#ffe69b" offset="0"/>
   <stop stop-color="#fff" offset="1"/>
  </linearGradient>
  <linearGradient id="linearGradient3982" x1="21.994" x2="20.917" y1="33.955" y2="15.815" gradientTransform="matrix(1.003 0 0 1.003 -.071859 .019684)" gradientUnits="userSpaceOnUse">
   <stop stop-color="#fffeff" stop-opacity=".33333" offset="0"/>
   <stop stop-color="#fffeff" stop-opacity=".21569" offset="1"/>
  </linearGradient>
 </defs>
 <path transform="matrix(1.0706 0 0 .525 -.89276 22.5)" d="m41 40a17.143 8.5714 0 1 1-34.286 0 17.143 8.5714 0 1 1 34.286 0z" color="#000000" display="block" fill="url(#radialGradient3976)" opacity=".6"/>
 <g>
  <path transform="matrix(.92049 0 0 .92049 2.3685 .97408)" d="m46.857 23.929a23.357 23.357 0 1 1-46.714 0 23.357 23.357 0 1 1 46.714 0z" fill="url(#linearGradient3978)" stroke="#b20000" stroke-width="1.0864"/>
  <path transform="matrix(.85609 0 0 .85609 1.8183 .19777)" d="m49.902 26.635a23.991 23.991 0 1 1-47.982 0 23.991 23.991 0 1 1 47.982 0z" fill-opacity="0" opacity=".34659" stroke="url(#linearGradient3980)" stroke-width="1.1681"/>
 </g>
 <g fill="#efefef">
  <rect transform="matrix(.70711 -.70711 .70711 .70711 0 0)" x="-13.293" y="30.234" width="28" height="6.0001"/>
  <rect transform="matrix(.70711 .70711 -.70711 .70711 0 0)" x="19.234" y="-3.7071" width="28" height="6.0001"/>
 </g>
 <path d="m43.429 21.8c0 10.863-10.385-6.2851-18.731 0.38754-8.1507 6.517-20.659 12.227-20.659 1.364 0-11.117 8.7214-21.431 19.584-21.431s19.805 8.8164 19.805 19.679z" fill="url(#linearGradient3982)"/>
</svg>
